img/sprites/intermediate-svg/curate-platform.svg

<svg width="201" height="59" viewBox="0 0 201 59" fill="none" xmlns="http://www.w3.org/2000/svg">
<path d="M76.2817 17.6736C76.2817 19.9185 77.1963 21.9552 78.5682 23.4364C79.9629 24.9175 81.9293 25.8433 84.1015 25.8433C87.8284 25.8433 90.7551 23.3438 91.6697 19.664H89.4061C88.5829 22.1172 86.5251 23.5289 84.1015 23.5289C82.5695 23.5289 81.1748 22.8578 80.1687 21.7932C79.1627 20.7286 78.5225 19.2937 78.5225 17.6736C78.5225 16.0073 79.1627 14.5724 80.1687 13.5078C81.1748 12.4432 82.5695 11.7721 84.1015 11.7721C86.4565 11.7721 88.4229 12.9987 89.2689 15.4287H91.5553C90.6407 11.7721 87.7598 9.45771 84.1015 9.45771C81.9293 9.45771 79.9629 10.4066 78.5682 11.8646C77.1963 13.3458 76.2817 15.3824 76.2817 17.6736Z" fill="white"/>
<path d="M108.611 25.8896C111.355 25.8896 114.511 24.1769 114.511 20.8906V9.55028H112.178V20.8674C112.178 22.6495 110.281 23.5521 108.611 23.5521C106.919 23.5521 105.022 22.6726 105.022 20.8906V9.55028H102.69V20.8674C102.69 24.1769 105.799 25.8896 108.611 25.8896Z" fill="white"/>
<path d="M129.095 18.6225L134.926 25.7276H137.921L132.868 19.6408C135.612 19.1548 137.006 16.9793 137.006 14.6881C137.006 12.1192 135.269 9.52714 131.793 9.52714H125.963V25.7276H128.249V11.8878H131.793C133.737 11.8878 134.697 13.2995 134.697 14.6881C134.697 16.0999 133.737 17.5116 131.793 17.5116H129.095V18.6225Z" fill="white"/>
<path d="M175.538 25.797V11.8878H180.363V9.52714H168.382V11.8878H173.229V25.797H175.538Z" fill="white"/>
<path d="M193.491 18.8077H200.739V16.447H193.491V11.8878H200.899V9.55028H191.159V25.7276H200.922V23.3901H193.491V18.8077Z" fill="white"/>
<path d="M153.774 13.0449L155.74 18.7614L156.632 20.96L158.553 25.7276H161.022L154.597 9.31885H152.905L146.48 25.7276H148.972C149.475 24.3852 150.276 22.4412 150.893 20.96L151.762 18.7614L153.774 13.0449Z" fill="white"/>
<circle cx="29.1216" cy="29.1216" r="29.1216" fill="#011D1F"/>
<g filter="url(#filter0_d)">
<path d="M29.0534 4.97217C22.4361 4.97217 16.4328 7.7162 12.0668 11.8323C7.70072 16.0169 4.97194 21.9166 4.97194 28.4337C4.97194 39.1847 11.7826 47.7161 21.948 50.7966C22.5718 50.9856 23.1865 50.5079 23.1865 49.8561L23.1865 45.0643C23.1865 44.6366 22.9134 44.2587 22.5141 44.1055C15.6979 41.4904 11.7939 35.4769 11.7939 28.4337C11.7939 23.8374 13.7722 19.6528 16.9103 16.6343C20.0484 13.6159 24.278 11.6951 29.0534 11.6951C33.9652 11.6951 38.1948 13.6159 41.3329 16.6343C44.4709 19.6528 46.4493 23.8374 46.4493 28.4337C46.4493 35.2786 43.0563 41.0291 36.3323 43.6896C35.9385 43.8454 35.6706 44.2206 35.6706 44.6441L35.6706 49.5111C35.6706 50.1635 36.2868 50.6413 36.9107 50.4507C46.9698 47.3774 53.2712 38.9828 53.2712 28.4337C53.2712 21.9166 50.4743 16.0169 46.1764 11.8323C41.8104 7.71621 35.8071 4.97217 29.0534 4.97217Z" fill="white"/>
</g>
<path d="M79.0014 48.3968V53.584H77.2542V40.3337H82.1411C83.5911 40.3337 84.7257 40.7038 85.5447 41.444C86.3698 42.1841 86.7824 43.164 86.7824 44.3834C86.7824 45.6696 86.3789 46.6616 85.572 47.3593C84.7712 48.0509 83.6215 48.3968 82.1229 48.3968H79.0014ZM79.0014 46.968H82.1411C83.0754 46.968 83.7914 46.7496 84.2888 46.3127C84.7863 45.8698 85.0351 45.2328 85.0351 44.4016C85.0351 43.6129 84.7863 42.982 84.2888 42.5087C83.7914 42.0355 83.1088 41.7898 82.2412 41.7716H79.0014V46.968Z" fill="#5C8487"/>
<path d="M90.5773 53.584H88.8937V39.6057H90.5773V53.584Z" fill="#5C8487"/>
<path d="M99.3593 53.584C99.2622 53.3899 99.1833 53.0441 99.1227 52.5466C98.34 53.3596 97.4057 53.7661 96.3197 53.7661C95.349 53.7661 94.5512 53.493 93.9263 52.947C93.3075 52.3949 92.998 51.6972 92.998 50.8539C92.998 49.8286 93.3863 49.0338 94.1629 48.4696C94.9455 47.8993 96.0437 47.6141 97.4573 47.6141H99.0954V46.8406C99.0954 46.2521 98.9194 45.7849 98.5675 45.4391C98.2157 45.0872 97.6969 44.9113 97.0114 44.9113C96.4107 44.9113 95.9072 45.0629 95.5007 45.3663C95.0942 45.6696 94.8909 46.0367 94.8909 46.4674H93.1982C93.1982 45.976 93.3712 45.5028 93.717 45.0478C94.0689 44.5867 94.5421 44.2227 95.1367 43.9557C95.7373 43.6888 96.3956 43.5553 97.1115 43.5553C98.246 43.5553 99.1348 43.8404 99.7779 44.4107C100.421 44.975 100.755 45.7546 100.779 46.7496V51.2816C100.779 52.1856 100.894 52.9045 101.125 53.4384V53.584H99.3593ZM96.5654 52.3009C97.0933 52.3009 97.5938 52.1644 98.067 51.8914C98.5402 51.6183 98.883 51.2634 99.0954 50.8266V48.8063H97.7758C95.713 48.8063 94.6816 49.4099 94.6816 50.6173C94.6816 51.1451 94.8576 51.5577 95.2095 51.855C95.5613 52.1522 96.0133 52.3009 96.5654 52.3009Z" fill="#5C8487"/>
<path d="M105.702 41.353V43.7373H107.541V45.0387H105.702V51.1451C105.702 51.5395 105.784 51.8367 105.948 52.037C106.112 52.2311 106.391 52.3282 106.785 52.3282C106.979 52.3282 107.246 52.2918 107.586 52.219V53.584C107.143 53.7054 106.713 53.7661 106.294 53.7661C105.542 53.7661 104.974 53.5385 104.592 53.0835C104.21 52.6285 104.019 51.9824 104.019 51.1451V45.0387H102.226V43.7373H104.019V41.353H105.702Z" fill="#5C8487"/>
<path d="M110.344 53.584V45.0387H108.787V43.7373H110.344V42.7271C110.344 41.6715 110.626 40.8555 111.19 40.2791C111.754 39.7027 112.552 39.4146 113.583 39.4146C113.972 39.4146 114.357 39.4661 114.739 39.5693L114.648 40.9343C114.363 40.8797 114.06 40.8524 113.738 40.8524C113.192 40.8524 112.77 41.0132 112.473 41.3348C112.176 41.6502 112.027 42.1053 112.027 42.6998V43.7373H114.129V45.0387H112.027V53.584H110.344Z" fill="#5C8487"/>
<path d="M115.549 48.5697C115.549 47.605 115.737 46.7374 116.113 45.9669C116.496 45.1964 117.023 44.6018 117.697 44.1832C118.376 43.7646 119.15 43.5553 120.017 43.5553C121.358 43.5553 122.441 44.0194 123.266 44.9477C124.098 45.8759 124.513 47.1106 124.513 48.6516V48.7699C124.513 49.7285 124.328 50.59 123.958 51.3544C123.594 52.1128 123.069 52.7043 122.384 53.129C121.704 53.5537 120.921 53.7661 120.036 53.7661C118.701 53.7661 117.618 53.3019 116.787 52.3737C115.962 51.4454 115.549 50.2169 115.549 48.688V48.5697ZM117.242 48.7699C117.242 49.8619 117.494 50.7386 117.997 51.3999C118.507 52.0612 119.186 52.3919 120.036 52.3919C120.891 52.3919 121.571 52.0582 122.074 51.3908C122.578 50.7174 122.83 49.777 122.83 48.5697C122.83 47.4897 122.572 46.6161 122.056 45.9487C121.546 45.2753 120.867 44.9386 120.017 44.9386C119.186 44.9386 118.516 45.2692 118.006 45.9305C117.497 46.5918 117.242 47.5383 117.242 48.7699Z" fill="#5C8487"/>
<path d="M131.384 45.248C131.129 45.2055 130.853 45.1843 130.556 45.1843C129.452 45.1843 128.702 45.6545 128.308 46.5949V53.584H126.624V43.7373H128.263L128.29 44.8749C128.842 43.9951 129.625 43.5553 130.638 43.5553C130.965 43.5553 131.214 43.5978 131.384 43.6827V45.248Z" fill="#5C8487"/>
<path d="M134.524 43.7373L134.569 44.8294C135.291 43.98 136.265 43.5553 137.49 43.5553C138.868 43.5553 139.805 44.0831 140.302 45.1388C140.63 44.6655 141.055 44.2833 141.577 43.9921C142.104 43.7009 142.726 43.5553 143.442 43.5553C145.602 43.5553 146.7 44.6989 146.737 46.9862V53.584H145.053V47.0863C145.053 46.3825 144.892 45.8577 144.571 45.5119C144.249 45.16 143.709 44.9841 142.951 44.9841C142.326 44.9841 141.807 45.1721 141.395 45.5483C140.982 45.9184 140.742 46.4189 140.676 47.0499V53.584H138.983V47.1318C138.983 45.7 138.282 44.9841 136.881 44.9841C135.777 44.9841 135.021 45.4543 134.615 46.3946V53.584H132.931V43.7373H134.524Z" fill="#5C8487"/>
<defs>
<filter id="filter0_d" x="0.971939" y="2.97217" width="56.2993" height="53.8662" filterUnits="userSpaceOnUse" color-interpolation-filters="sRGB">
<feFlood flood-opacity="0" result="BackgroundImageFix"/>
<feColorMatrix in="SourceAlpha" type="matrix" values="0 0 0 0 0 0 0 0 0 0 0 0 0 0 0 0 0 0 127 0"/>
<feOffset dy="2"/>
<feGaussianBlur stdDeviation="2"/>
<feColorMatrix type="matrix" values="0 0 0 0 1 0 0 0 0 1 0 0 0 0 1 0 0 0 0.2 0"/>
<feBlend mode="normal" in2="BackgroundImageFix" result="effect1_dropShadow"/>
<feBlend mode="normal" in="SourceGraphic" in2="effect1_dropShadow" result="shape"/>
</filter>
</defs>
</svg>

<?xml version="1.0" encoding="utf-8"?><svg width="201" height="59" fill="none" xmlns="http://www.w3.org/2000/svg" viewBox="0 0 201 59"><path d="M76.282 17.674c0 2.245.914 4.281 2.286 5.762a7.586 7.586 0 0 0 5.534 2.407c3.726 0 6.653-2.5 7.568-6.179h-2.264c-.823 2.453-2.88 3.865-5.305 3.865-1.531 0-2.926-.671-3.932-1.736a5.964 5.964 0 0 1-1.647-4.12c0-1.666.64-3.1 1.647-4.165 1.006-1.065 2.4-1.736 3.933-1.736 2.355 0 4.32 1.227 5.167 3.657h2.286c-.914-3.657-3.795-5.971-7.454-5.971-2.172 0-4.138.949-5.533 2.407a8.545 8.545 0 0 0-2.286 5.809zm32.329 8.216c2.744 0 5.9-1.713 5.9-5V9.55h-2.333v11.317c0 1.782-1.897 2.685-3.567 2.685-1.692 0-3.589-.88-3.589-2.661V9.55h-2.332v11.316c0 3.31 3.109 5.023 5.921 5.023zm20.484-7.267l5.831 7.105h2.995l-5.053-6.087c2.744-.486 4.138-2.662 4.138-4.953 0-2.569-1.737-5.16-5.213-5.16h-5.83v16.2h2.286v-13.84h3.544c1.944 0 2.904 1.412 2.904 2.8 0 1.412-.96 2.824-2.904 2.824h-2.698v1.11zm46.443 7.174v-13.91h4.825v-2.36h-11.981v2.36h4.847v13.91h2.309zm17.953-6.989h7.248v-2.36h-7.248v-4.56h7.408V9.55h-9.74v16.178h9.763V23.39h-7.431v-4.582zm-39.717-5.763l1.966 5.716.892 2.2 1.921 4.767h2.469l-6.425-16.41h-1.692l-6.425 16.41h2.492c.503-1.343 1.304-3.287 1.921-4.768l.869-2.199 2.012-5.716z" fill="#fff"/><circle cx="29.122" cy="29.122" r="29.122" fill="#16151B"/><path d="M29.053 4.972c-6.617 0-12.62 2.744-16.986 6.86C7.7 16.017 4.972 21.916 4.972 28.433c0 10.752 6.81 19.283 16.976 22.363.624.19 1.238-.288 1.238-.94v-4.792c0-.428-.273-.806-.672-.959-6.816-2.615-10.72-8.628-10.72-15.671 0-4.597 1.978-8.781 5.116-11.8 3.138-3.018 7.368-4.94 12.143-4.94 4.912 0 9.142 1.922 12.28 4.94 3.138 3.019 5.116 7.203 5.116 11.8 0 6.844-3.393 12.595-10.117 15.255a1.034 1.034 0 0 0-.661.955v4.867c0 .652.616 1.13 1.24.94 10.059-3.074 16.36-11.468 16.36-22.018 0-6.517-2.797-12.416-7.095-16.6-4.366-4.117-10.369-6.861-17.123-6.861z" fill="#fff"/><path d="M79.001 48.397v5.187h-1.747v-13.25h4.887c1.45 0 2.585.37 3.404 1.11.825.74 1.237 1.72 1.237 2.94 0 1.285-.403 2.277-1.21 2.975-.8.692-1.95 1.038-3.45 1.038h-3.12zm0-1.43h3.14c.934 0 1.65-.218 2.148-.654.497-.443.746-1.08.746-1.912 0-.788-.249-1.42-.746-1.893-.498-.473-1.18-.719-2.048-.737h-3.24v5.197zm11.576 6.617h-1.683V39.605h1.683v13.979zm8.783 0c-.098-.194-.177-.54-.237-1.038-.783.813-1.717 1.22-2.803 1.22-.971 0-1.769-.273-2.394-.82-.618-.551-.928-1.249-.928-2.092 0-1.026.388-1.82 1.165-2.385.782-.57 1.88-.855 3.294-.855h1.638v-.774c0-.588-.176-1.055-.528-1.401-.351-.352-.87-.528-1.556-.528-.6 0-1.104.152-1.51.455-.407.303-.61.67-.61 1.101h-1.693c0-.491.173-.965.519-1.42.352-.46.825-.825 1.42-1.091a4.79 4.79 0 0 1 1.975-.401c1.134 0 2.023.285 2.666.855.643.565.977 1.344 1.001 2.34v4.531c0 .904.115 1.623.346 2.157v.146h-1.766zM96.564 52.3a2.96 2.96 0 0 0 1.502-.41c.473-.273.816-.628 1.028-1.065v-2.02h-1.32c-2.062 0-3.093.604-3.093 1.811 0 .528.176.94.528 1.238.351.297.803.446 1.355.446zm9.138-10.947v2.384h1.839v1.301h-1.839v6.107c0 .394.082.691.246.892.164.194.443.29.837.29.194 0 .461-.035.801-.108v1.365a4.88 4.88 0 0 1-1.292.182c-.752 0-1.32-.228-1.702-.683-.382-.455-.573-1.1-.573-1.938v-6.107h-1.793v-1.301h1.793v-2.384h1.683zm4.642 12.231v-8.546h-1.557v-1.301h1.557v-1.01c0-1.056.282-1.872.846-2.448.564-.577 1.362-.865 2.393-.865.389 0 .774.052 1.156.155l-.091 1.365a4.83 4.83 0 0 0-.91-.082c-.546 0-.968.161-1.265.483-.297.315-.446.77-.446 1.365v1.037h2.102v1.301h-2.102v8.546h-1.683zm5.205-5.014c0-.965.188-1.833.564-2.603.383-.77.91-1.365 1.584-1.784.679-.419 1.453-.628 2.32-.628 1.341 0 2.424.464 3.249 1.392.832.929 1.247 2.163 1.247 3.704v.119c0 .958-.185 1.82-.555 2.584a4.15 4.15 0 0 1-1.574 1.775c-.68.425-1.463.637-2.348.637-1.335 0-2.418-.464-3.249-1.393-.825-.928-1.238-2.156-1.238-3.685v-.119zm1.693.2c0 1.092.252 1.968.755 2.63.51.661 1.189.992 2.039.992.855 0 1.535-.334 2.038-1.001.504-.674.756-1.614.756-2.822 0-1.08-.258-1.953-.774-2.62-.51-.674-1.189-1.01-2.039-1.01-.831 0-1.501.33-2.011.991-.509.662-.764 1.608-.764 2.84zm14.142-3.522a5.055 5.055 0 0 0-.828-.064c-1.104 0-1.854.47-2.248 1.41v6.99h-1.684v-9.847h1.639l.027 1.138c.552-.88 1.335-1.32 2.348-1.32.327 0 .576.042.746.127v1.566zm3.14-1.511l.045 1.092c.722-.85 1.696-1.274 2.921-1.274 1.378 0 2.315.528 2.812 1.584a3.747 3.747 0 0 1 1.275-1.147c.527-.291 1.149-.437 1.865-.437 2.16 0 3.258 1.144 3.295 3.43v6.599h-1.684v-6.498c0-.704-.161-1.228-.482-1.574-.322-.352-.862-.528-1.62-.528-.625 0-1.144.188-1.556.564-.413.37-.653.87-.719 1.502v6.534h-1.693V47.13c0-1.431-.701-2.147-2.102-2.147-1.104 0-1.86.47-2.266 1.41v7.19h-1.684v-9.847h1.593z" fill="#786A83"/></svg>
